X: 1
T: Tommy Peoples'
M: 4/4
L: 1/8
R: reel
K: Bmin
|: B3 c dBAF | ~B3c  dfed | ~B3c dcdB |1 ABde fded :|2 ABde fdec ||
|: dfaf bfaf | dfaf ~g2fg | afge ~d3B |1 ABde fdec :|2 ABde fded |]
